X: 1
T: An Drochaid Chliùteach
R: three-two
M: 3/2
L: 1/8
K: Amix
ce (3(eee) feef ec a2 | ce (3(eee) feef ec B2 |
ce (3(eee) feef ec a2 | A2 AB c2 ec BG A2 :|
ae (3(eee) feef ec a2 | ae (3(eee) feef ec B2 |
ae (3(eee) feef ec a2 | A2 AB c2 ec BG A2 :|


Tune 5151	Setting 20976

